X: 1
T:An Pa/isti/n Fionn
T:Fairhaired Child, The
M:3/4
L:1/8
Q:120
S:irtrad-l, J. Coburn, 9/97
R:Air
K:EDor
B2 | e3 f e2 | d2 e2 f2 | g4 e2 | f4 gf |
e3 d cB | G3 A Bc | d4 B2 | B4 B2 |
e3 f e2 | d2 e2 f2 | g4 e2 | f4 gf |
e2 d2 B2 | A2 G2 F2 | E6 | E4 || EF |
G3 A Bc | d2 B2 B2 | c2 A2 A2 | d2 B2 A2 |
G3 A Bc | d2 B2 d2 | e6 | e4 EF |
G3 A Bc | d2 B2 A2 | B e3 f2 | g3 a fe |
e2 d2 B2 | A2 G2 F2 | E6 | E4 |]
W:1. Is gra/ le m-anam mo Pha/isti/n Fionn,
W: A croi/ 's a h-aigne ag ga/iri/ liom,
W: A ci/ocha geala mar bhla/th na n-u/ll,
W: 'S a pi/b mar an eala la/ Ma/rta.
W:Cu/rfa/:
W: Is tusa mo ru/n, mo ru/n, mo ru/n,
W: Is tusa mo ru/n is mo ghra/ geal;
W: Is tusa mo ru/n is mo chumann go buan
W: 'S e/ mo chreach gan tu/ 'gam o/ do mha/ithri/n.
W:2. Is cara mo chroi/ mo Pha/isti/n Fionn,
W: 'uil a da/ ghrua ar lasadh mar bhla/th na gcrann,
W: Ata/ mise saor ar mo Pha/isti/n Fionn
W: Ach amha/in nuair o/lfainn a sla/inte.
W:3. Da/ mbe/innse sa mbaile 'mbi/onn su/gradh 's greann,
W: No/ idir dha/ bharraile la/n de leann,
W: Mo shu/iri/n im aice 's mo la/mh faoin a ceann
W: Is su/gach a d'o/lfainn a sla/inte.
W:4. Do bhi/ me/ naoi n-oi/che im lui/ go bocht,
W: O/ bheith si/nte faoi 'n di/linn idir dha/ thor,
W: A chumann mo chroi/! 's me/ ag smaoineadh ort,
W: 'S nach bhfaghainnse le fead no/ le glaodh thu/.
W:5. O/, tre/igfead mo charaid 's mo cha/irde gaoil,
W: Is tre/igfead a maireann de mhna/ibh an tsaoil,
W: Ni/ thre/igfead le m' mharthainn thu/, ghra/ mo chroi/,
W: Go si/nfear i gcomhrainn faoi chla/r me/.
